frontend/public/svg/hand gestures/hand.svg

<svg width="115" height="144" viewBox="0 0 115 144" fill="none" xmlns="http://www.w3.org/2000/svg">
<g clip-path="url(#clip0)">
<path d="M7.30095 86.3697C8.24677 87.4237 9.23784 88.4739 10.1974 89.4892C12.7412 92.0345 15.0652 94.7905 17.1447 97.7276C19.2428 101.034 21.1454 104.459 22.843 107.987C23.7881 109.859 24.7662 111.794 25.7907 113.661L26.3636 114.705C28.7264 119.009 31.1655 123.459 33.8584 127.654C35.3317 129.809 37.1479 131.709 39.2351 133.278C43.0955 136.24 47.3789 138.604 51.9419 140.294C56.7893 142.231 61.9619 143.226 67.1819 143.224C73.0739 143.152 78.9074 142.051 84.4206 139.972C88.4564 138.445 92.1884 136.213 95.4418 133.379C99.75 129.731 103.017 125.061 106.036 118.236C109.186 111.113 110.265 103.437 111.308 96.0145C111.617 93.8152 111.936 91.5409 112.304 89.3199C112.64 86.9853 112.826 84.6323 112.862 82.2741C112.919 80.7212 112.979 79.1158 113.125 77.5531C114.317 64.9232 113.991 53.5882 112.127 42.8984C111.509 39.2286 110.54 35.6265 109.234 32.1418C107.024 26.366 101.64 22.7613 96.133 23.3671C95.0946 23.5174 94.074 23.7709 93.0856 24.124C92.7318 24.2362 92.3748 24.3504 92.0125 24.4567C91.9377 24.0774 91.872 23.7039 91.8077 23.3377C91.6587 22.3228 91.425 21.3222 91.11 20.3461C90.9131 19.7888 90.7228 19.2257 90.5318 18.6613C89.8695 16.426 88.9572 14.2728 87.8119 12.2423C87.1556 11.1579 86.2721 10.2286 85.222 9.51854C84.1719 8.80851 82.9806 8.33437 81.7296 8.129C80.3822 7.91661 79.0045 7.99452 77.6892 8.35741C76.3739 8.7203 75.1518 9.35983 74.1036 10.2332C73.6442 10.608 73.2045 11.0031 72.7995 11.3661C72.7339 11.4232 72.6735 11.4796 72.6111 11.5347C72.2364 10.8521 71.8734 10.1768 71.5144 9.50862C70.5568 7.72798 69.6524 6.04512 68.6219 4.40427C66.9154 1.68506 64.1746 0.523993 60.6986 1.0425C59.1869 1.23253 57.7415 1.77681 56.48 2.63106C55.2184 3.48532 54.1766 4.62539 53.439 5.95847C52.399 7.93532 51.4658 9.96649 50.6436 12.0434C50.3555 12.7372 50.0672 13.4289 49.7719 14.1141C49.6793 13.9658 49.5856 13.8129 49.4897 13.6547C48.9465 12.7381 48.3564 11.85 47.7221 10.9939C45.1139 7.58949 41.6708 6.84058 37.7689 8.828C33.2887 11.1081 32.3376 15.4373 32.0114 18.4952C31.5734 22.297 31.3445 26.12 31.3256 29.947C31.3472 38.7852 31.4503 47.7698 31.5494 56.4584C31.5932 60.1851 31.6337 63.9118 31.6709 67.6384C31.6833 68.9058 31.6799 70.1732 31.6766 71.4406V72.8078C31.5198 72.6765 31.3663 72.5452 31.2121 72.4074C30.9095 72.1449 30.5957 71.8679 30.2596 71.6231C23.5577 66.7498 16.4228 65.0335 9.05413 66.522C7.45463 66.8069 5.953 67.4908 4.6889 68.5114C3.42481 69.532 2.43923 70.8551 1.82383 72.3588C1.21978 73.9439 1.02 75.6543 1.24265 77.3352C1.46529 79.0167 2.10344 80.6162 3.09917 81.9893C3.84328 82.9803 4.68931 83.89 5.62341 84.7039C6.1918 85.2388 6.78113 85.7901 7.30095 86.3697ZM37.7997 80.7908C37.6684 73.0749 37.5017 65.0387 37.2923 56.2202C37.2503 54.4258 37.1736 52.6031 37.1001 50.8382C36.9616 47.5296 36.8179 44.1087 36.894 40.7548C37.0561 33.6145 37.503 26.3587 37.9349 19.3418L37.9822 18.5845C38.1882 15.2299 39.4353 13.465 42.0213 12.8789C44.1328 14.2572 45.4422 16.5282 46.021 19.8263C46.8927 24.7792 47.506 29.7741 47.8587 34.7908C48.2932 41.0568 48.624 47.4377 48.9443 53.608C49.1294 57.1903 49.3152 60.7719 49.5213 64.3522C49.5775 65.1853 49.822 65.9948 50.2366 66.7196C50.5531 67.2827 51.0586 67.7152 51.6637 67.941C52.2687 68.1661 52.9342 68.1707 53.542 67.9522C54.1184 67.8439 54.6355 67.5295 54.9971 67.0674C55.3587 66.6054 55.5399 66.028 55.507 65.4424C55.5024 64.5951 55.5235 63.7458 55.5445 62.8965C55.6245 61.1528 55.5933 59.4058 55.4512 57.666C54.5127 48.6158 54.9793 39.414 55.4302 30.5154L55.5326 28.4879C55.7295 24.5499 56.0531 20.6847 56.3754 17.0906C56.6773 13.7164 57.6972 11.0437 59.493 8.91917C60.4519 7.78567 61.2323 7.26722 61.8656 7.32826C62.518 7.3939 63.1698 8.05024 63.916 9.40689C66.4101 13.9317 67.0519 19.0288 67.493 23.8621C68.4926 34.8137 68.5011 46.4177 67.5212 61.4859C67.4674 62.3175 67.365 63.1656 67.2666 63.986C67.1406 65.0282 67.0106 66.1065 66.9758 67.1777C66.9259 68.6695 67.3007 69.7374 68.0876 70.353C68.8746 70.9687 70.0002 71.075 71.431 70.6635C72.4359 70.4187 73.3357 69.8562 73.996 69.0594C74.6569 68.2633 75.0435 67.2755 75.0986 66.2425L75.2056 65.1031C75.5522 62.0147 75.7399 58.9104 75.7675 55.8028C75.6979 47.699 75.4649 39.4599 75.2424 31.4959L75.1879 29.5552C75.1636 28.6921 75.079 27.8185 74.9976 26.9731C74.7659 24.5768 74.5473 22.3131 75.545 20.0816L75.8685 19.3465C76.3693 18.0632 77.0184 16.8429 77.8028 15.7104C78.0804 15.2816 78.4663 14.934 78.9218 14.7028C79.3773 14.4715 79.8853 14.3649 80.3953 14.3937C80.8862 14.4851 81.3444 14.7052 81.7224 15.0314C82.1005 15.3576 82.3853 15.7783 82.5474 16.2505C83.3757 18.3085 84.0078 20.4401 84.4357 22.6169C86.0267 29.7796 85.7825 37.1877 85.5462 44.349L85.5357 44.6627C85.2555 53.1577 85.136 61.6501 85.0481 69.5615C85.0199 72.1521 85.8678 73.2705 88.4085 73.9938C88.8522 74.1644 89.3294 74.232 89.8032 74.19C90.2771 74.1487 90.7352 73.999 91.1428 73.7535C91.5064 73.4569 91.7979 73.0801 91.9934 72.6535C92.1897 72.2269 92.2849 71.7602 92.2724 71.291C92.3682 69.7906 92.3662 68.2646 92.3649 66.7885C92.3649 66.1506 92.3649 65.5126 92.3702 64.8752C92.3846 63.4869 92.3977 62.0987 92.4089 60.7109C92.4352 57.7324 92.4621 54.7533 92.5126 51.7748C92.5382 50.2915 92.5874 48.8075 92.6367 47.3242C92.7246 44.6988 92.8145 41.9803 92.7679 39.307C92.7161 36.5583 93.9671 34.3576 95.3276 32.3892C95.5042 32.0785 95.7411 31.8065 96.024 31.5891C96.3075 31.3717 96.6318 31.2135 96.9777 31.1237C97.3774 31.0903 97.7804 31.1365 98.1624 31.2596C98.5437 31.3827 98.8975 31.5804 99.2027 31.8412C100.909 33.0354 102.079 34.8514 102.461 36.8988L102.923 39.1784C104.022 44.5827 105.155 50.1714 105.895 55.7122C106.808 63.2748 106.835 70.9182 105.974 78.487C105.878 79.4033 105.869 80.3261 105.948 81.2437C106.775 90.2913 104.875 99.4656 103.348 106.837C102.135 112.638 99.6903 118.111 96.1809 122.887C92.6314 127.768 87.4627 131.204 80.3789 133.388C67.4431 137.382 55.3364 135.226 43.3648 126.798C42.184 126.014 41.1511 125.027 40.3135 123.883C38.2677 120.949 36.3754 117.913 34.6441 114.783C32.0095 109.894 29.3513 104.65 26.7443 99.1965C22.7407 90.8295 17.6277 84.2405 11.1031 79.0535C9.99866 78.1707 9.06883 77.089 8.36156 75.8643C8.16203 75.5539 8.03116 75.2034 7.97767 74.8385C7.92411 74.4729 7.94918 74.1001 8.05118 73.745C8.21237 73.3433 8.45561 72.9791 8.7654 72.6765C9.07513 72.3733 9.44458 72.1389 9.8502 71.9867C11.1393 71.4124 12.5357 71.119 13.947 71.1249C14.7108 71.1275 15.4726 71.2017 16.2226 71.3461C21.959 72.4225 25.8005 74.5562 28.3129 78.0617C29.1977 79.4551 29.8805 80.9673 30.3411 82.5524C30.4796 82.9567 30.6187 83.3597 30.7631 83.7561C31.3236 85.2965 32.1086 86.7234 34.0389 86.7359C35.7683 86.7306 36.9799 85.6936 37.4321 83.848C37.6841 82.8484 37.8076 81.8212 37.7997 80.7901V80.7908Z" fill="black"/>
</g>
<defs>
<clipPath id="clip0">
<rect width="113.546" height="142.425" fill="white" transform="translate(0.778076 0.886963)"/>
</clipPath>
</defs>
</svg>

<svg xmlns="http://www.w3.org/2000/svg" width="115" height="144" fill="none" viewBox="0 0 115 144"><g clip-path="url(#a)"><path fill="#000" d="M7.301 86.37a166 166 0 0 0 2.896 3.12 64 64 0 0 1 6.948 8.238c2.098 3.306 4 6.731 5.698 10.259.945 1.872 1.923 3.807 2.948 5.674l.573 1.044c2.362 4.304 4.802 8.754 7.494 12.949a24 24 0 0 0 5.377 5.624 48.6 48.6 0 0 0 12.707 7.016 41 41 0 0 0 15.24 2.93 50.6 50.6 0 0 0 17.239-3.252 36.4 36.4 0 0 0 11.02-6.593c4.309-3.648 7.576-8.318 10.595-15.143 3.15-7.123 4.229-14.799 5.272-22.222.309-2.199.628-4.473.996-6.694a55 55 0 0 0 .558-7.046c.057-1.553.117-3.158.263-4.72 1.192-12.63.866-23.966-.998-34.656a58 58 0 0 0-2.893-10.756c-2.21-5.776-7.594-9.38-13.101-8.775-1.038.15-2.059.404-3.047.757-.354.112-.711.226-1.073.333a54 54 0 0 1-.205-1.12 18.5 18.5 0 0 0-.698-2.99q-.293-.838-.578-1.686a31 31 0 0 0-2.72-6.419A8.77 8.77 0 0 0 81.73 8.13a9.58 9.58 0 0 0-7.626 2.104c-.46.375-.9.77-1.305 1.133l-.188.169q-.56-1.024-1.097-2.026c-.957-1.781-1.862-3.464-2.892-5.105-1.707-2.719-4.447-3.88-7.923-3.361a9.68 9.68 0 0 0-7.26 4.915 62 62 0 0 0-2.795 6.085q-.43 1.042-.872 2.071l-.282-.46a31 31 0 0 0-1.768-2.66c-2.608-3.405-6.051-4.153-9.953-2.166-4.48 2.28-5.431 6.61-5.758 9.667a105 105 0 0 0-.685 11.452c.021 8.838.124 17.823.223 26.511q.066 5.59.122 11.18c.012 1.268.009 2.535.006 3.803v1.367q-.234-.196-.465-.4c-.302-.263-.616-.54-.952-.785-6.702-4.873-13.837-6.59-21.206-5.101a9.64 9.64 0 0 0-7.23 5.837 10.21 10.21 0 0 0 1.275 9.63c.744.991 1.59 1.901 2.524 2.715.569.535 1.158 1.086 1.678 1.666M37.8 80.79c-.132-7.715-.298-15.751-.508-24.57a293 293 0 0 0-.192-5.382c-.138-3.308-.282-6.73-.206-10.083.162-7.14.609-14.396 1.04-21.413l.048-.758c.206-3.354 1.453-5.119 4.04-5.705 2.11 1.378 3.42 3.65 3.999 6.947a145 145 0 0 1 1.838 14.965c.434 6.266.765 12.647 1.085 18.817.185 3.582.371 7.164.577 10.744.056.833.301 1.643.716 2.368a2.73 2.73 0 0 0 3.305 1.232 2.41 2.41 0 0 0 1.965-2.51c-.005-.847.017-1.696.038-2.545.08-1.744.048-3.491-.094-5.231-.938-9.05-.472-18.252-.02-27.15l.102-2.028c.197-3.938.52-7.803.842-11.397.302-3.375 1.322-6.047 3.118-8.172.959-1.133 1.74-1.652 2.373-1.59.652.065 1.304.721 2.05 2.078 2.494 4.525 3.136 9.622 3.577 14.455 1 10.952 1.008 22.556.028 37.624-.054.832-.156 1.68-.254 2.5-.126 1.042-.256 2.12-.291 3.192-.05 1.492.325 2.56 1.112 3.175.787.616 1.912.722 3.343.31a4.81 4.81 0 0 0 3.668-4.421l.107-1.139c.346-3.088.534-6.193.561-9.3-.07-8.104-.302-16.343-.525-24.307l-.054-1.94c-.024-.864-.109-1.738-.19-2.583-.232-2.396-.45-4.66.547-6.891l.323-.736a17.7 17.7 0 0 1 1.935-3.636 2.89 2.89 0 0 1 2.592-1.316 2.82 2.82 0 0 1 2.152 1.856 35.3 35.3 0 0 1 1.889 6.367c1.59 7.163 1.346 14.57 1.11 21.732l-.01.314c-.28 8.495-.4 16.987-.488 24.899-.028 2.59.82 3.709 3.36 4.432a3.12 3.12 0 0 0 2.735-.24 3.07 3.07 0 0 0 1.13-2.463c.095-1.5.093-3.026.092-4.502q-.001-.957.005-1.914.023-2.082.039-4.164c.026-2.979.053-5.958.104-8.936.025-1.483.074-2.968.124-4.45.088-2.626.177-5.345.13-8.018-.05-2.749 1.2-4.95 2.56-6.918a2.68 2.68 0 0 1 1.65-1.265 3.04 3.04 0 0 1 2.226.717 7.95 7.95 0 0 1 3.258 5.058l.462 2.28c1.099 5.404 2.232 10.992 2.972 16.533.913 7.563.94 15.206.079 22.775-.096.916-.105 1.84-.026 2.757.827 9.047-1.073 18.222-2.6 25.593a41.4 41.4 0 0 1-7.167 16.05c-3.55 4.881-8.718 8.317-15.802 10.501-12.936 3.994-25.043 1.838-37.014-6.59a12 12 0 0 1-3.052-2.915 104 104 0 0 1-5.669-9.1 364 364 0 0 1-7.9-15.586c-4.003-8.368-9.116-14.957-15.64-20.144a11.4 11.4 0 0 1-2.742-3.189 2.6 2.6 0 0 1-.31-2.119 3.12 3.12 0 0 1 1.798-1.758 10 10 0 0 1 4.097-.862c.764.002 1.526.077 2.276.221 5.736 1.076 9.578 3.21 12.09 6.716a17.5 17.5 0 0 1 2.028 4.49q.207.609.422 1.204c.56 1.54 1.346 2.967 3.276 2.98 1.73-.005 2.94-1.042 3.393-2.888.252-1 .376-2.027.368-3.058"/></g><defs><clipPath id="a"><path fill="#fff" d="M.778.887h113.546v142.425H.778z"/></clipPath></defs></svg>
